X:285
T: Priest's Leap
S: "The Ted Furey Collection of Irish Traditional Tunes"
Z: B.Black
L: 1/8
M: 4/4
R: reel
K: G
DG (3GFG GABd|e2 ef edBA|(3GFG BG dGBG|ABAG E2 D2 |
DG (3GFG GABd|e2 ed efga|bg (3gfg ageg|dBAB G2 ||
Bc|dg (3gfg ag (3gfg|bg (3gfg egdB|GFGB dedB|ABAG E2 D2|
dg (3gfg ag (3gfg|bgag edBA|GFGB dGBG| AGEF G4||
